X:1
T:Title
%%score { 1 | 2 } { 3 | 4 }
L:1/8
M:4/4
K:F
V:1 treble nm="Grand Piano, Staff 1"
V:2 treble 
V:3 bass nm="Choir Pad, Epiphany (Wesley)"
V:4 bass 
V:1
 c4 f2 d2 | c4 B2 A2 | G2 F2 A2 G2 | F4 E2 z2 | F4 G2 A2 | B4 c2 d2 | c4 B2 A2 | G4 z4 | c4 f2 d2 | %9
w: By~Samuel~Sebastian~Wesley,~1864 * *|||||||||
 c4 B2 A2 | G2 F2 A2 G2 | F4 E4 | G4 F2 F2 | B4 A2 A2 | G4 G2 G2 | F4 z4 | A4 A2 A2 | d4 f2 f2 | %18
w: |||||||||
 e4 d2 e2 | d4 ^c4 | d4 c2 c2 | B4 A2 A2 | G4 F2 G2 | A4 z4 | c4 f2 d2 | c4 B2 A2 | G2 F2 A2 G2 | %27
w: |||||||||
 F4 E4 | B4 A2 A2 | d4 c2 c2 | B2 A2 G4 | F8 |] %32
w: |||||
V:2
 C4 D2 D2 | G4 E2 E2 | E2 D2 D2 D2 | C4 C2 z2 | z4 F2 F2 | F4 E2 E2 | F4 F2 F2 | E4 z4 | F4 D2 D2 | %9
 G4 E2 E2 | E2 D2 D2 D2 | C4 C4 | E4 D2 D2 | E4 F2 F2 | F4 E2 E2 | z8 | D4 ^C2 C2 | D4 A2 A2 | %18
 G4 F2 G2 | F4 E4 | D4 A2 A2 | G4 E2 E2 | D4 D2 D2 | E4 z4 | F4 D2 D2 | G4 E2 E2 | E2 z2 D2 D2 | %27
 C4 C4 | E4 F2 F2 | E4 F2 F2 | F2 F2 E4 | z8 |] %32
V:3
 A,4 A,2 A,2 | C4 C2 C2 | A,4 C2 B,2 | A,4 G,2 z2 | C4 D2 C2 | B,4 B,2 B,2 | C4 D2 D2 | G,4 z4 | %8
 A,4 A,2 A,2 | C4 C2 C2 | A,4 C2 B,2 | A,4 G,4 | B,4 A,2 A,2 | B,4[K:treble] C2 C2 | D4 C2 B,2 | %15
 A,4 z4 | F,4 G,2 G,2 | A,4 C2 C2 | B,4 B,2 B,2 | A,4 A,4 | D4 D2 D2 | D4 ^C2 C2 | D4 D2 D2 | %23
 ^C4 z4 | A,4 A,2 A,2 | C4 C2 C2 | B,2 A,2 C2 B,2 | A,4 G,4 | G,4 F,2 F,2 | B,4[K:treble] C2 C2 | %30
 D2 C2 B,4 | A,8 |] %32
V:4
 F,4 F,2 F,2 | E,4 C,2 C,2 | D,4 B,,2 B,,2 | C,4 C,2 z2 | A,,4 B,,2 C,2 | D,4 G,,2 G,,2 | %6
 A,,4 B,,2 B,,2 | C,4 z4 | z4 F,2 F,2 | E,4 C,2 C,2 | D,4 B,,2 B,,2 | C,4 C,4 | ^C,4 D,2 D,2 | %13
 G,,4 A,,2 A,,2 | B,,4 C,2 C,2 | F,,4 z4 | D,4 E,2 E,2 | F,4 [F,,F,]2 [F,,F,]2 | %18
 [G,,G,]4 B,,2 [G,,G,]2 | A,,4 A,,4 | B,,4 ^F,2 F,2 | G,4 A,2 A,2 | B,4 B,,2 B,,2 | A,,4 z4 | %24
 F,4 F,2 F,2 | E,4 C,2 C,2 | D,4 B,,2 B,,2 | C,4 C,4 | ^C,4 D,2 D,2 | G,,4 A,,2 A,,2 | %30
 B,,2 B,,2 C,4 | [F,,F,]8 |] %32

